svgs/sharp-solid/grid-dividers.svg

<svg xmlns="http://www.w3.org/2000/svg" viewBox="0 0 512 512"><!--! Font Awesome Pro 6.6.0 by @fontawesome - https://fontawesome.com License - https://fontawesome.com/license (Commercial License) Copyright 2024 Fonticons, Inc. --><path d="M0 0L512 0l0 48L0 48 0 0zM160 96l0 128L32 224 32 96l128 0zm0 288l0 128L32 512l0-128 128 0zM192 96l128 0 0 128-128 0 0-128zM320 384l0 128-128 0 0-128 128 0zM352 96l128 0 0 128-128 0 0-128zM480 384l0 128-128 0 0-128 128 0zm32-96l0 48L0 336l0-48 512 0z"/></svg>

<svg xmlns="http://www.w3.org/2000/svg" viewBox="0 0 512 512"><!--! Font Awesome Pro 6.4.0 by @fontawesome - https://fontawesome.com License - https://fontawesome.com/license (Commercial License) Copyright 2023 Fonticons, Inc. --><path d="M0 0H512V48H0V0zM160 96V224H32V96H160zm0 288V512H32V384H160zM192 96H320V224H192V96zM320 384V512H192V384H320zM352 96H480V224H352V96zM480 384V512H352V384H480zm32-96v48H0V288H512z"/></svg>
